public/images/icons/good.svg

<svg width="6" height="12" viewBox="0 0 6 12" fill="none" xmlns="http://www.w3.org/2000/svg">
<path d="M3.91658 3.33329C4.65296 3.33329 5.24992 2.73634 5.24992 1.99996C5.24992 1.26358 4.65296 0.666626 3.91658 0.666626C3.18021 0.666626 2.58325 1.26358 2.58325 1.99996C2.58325 2.73634 3.18021 3.33329 3.91658 3.33329Z" fill="#338C7C"/>
<path d="M5.27989 8.74328C5.24306 8.7185 5.20165 8.70133 5.15809 8.69277C5.11453 8.68421 5.0697 8.68444 5.02623 8.69345C4.98276 8.70245 4.94152 8.72005 4.90495 8.74521C4.86837 8.77036 4.83719 8.80257 4.81323 8.83994C4.49099 9.31716 4.09624 9.74115 3.64323 10.0966C3.53323 10.1799 3.12323 10.4966 2.94989 10.4299C2.82989 10.3933 2.89989 10.1566 2.92323 10.0566L3.09989 9.53328C3.17323 9.31994 4.44989 5.53328 4.58989 5.09994C4.79656 4.46661 4.70656 3.84328 3.76323 3.99328C3.50656 4.01994 0.903226 4.35661 0.856559 4.35994C0.812785 4.36279 0.770001 4.37423 0.730648 4.39361C0.691295 4.41299 0.656144 4.43993 0.627203 4.47289C0.598262 4.50586 0.576098 4.5442 0.561975 4.58573C0.547852 4.62726 0.542048 4.67117 0.544893 4.71494C0.547738 4.75872 0.559178 4.8015 0.578558 4.84085C0.597938 4.88021 0.62488 4.91536 0.657844 4.9443C0.690809 4.97324 0.729152 4.9954 0.770682 5.00953C0.812213 5.02365 0.856119 5.02945 0.899893 5.02661C0.899893 5.02661 1.89989 4.89661 2.00989 4.88661C2.06624 4.88111 2.12297 4.89203 2.17324 4.91805C2.22352 4.94408 2.26519 4.9841 2.29323 5.03328C2.35362 5.21999 2.34535 5.42213 2.26989 5.60328C2.18323 5.93661 0.813226 9.79661 0.769893 10.0199C0.723415 10.2068 0.736319 10.4036 0.806812 10.5828C0.877304 10.762 1.00188 10.9148 1.16323 11.0199C1.46606 11.2218 1.82664 11.319 2.18989 11.2966C2.54308 11.2923 2.89238 11.2222 3.21989 11.0899C4.04989 10.7566 4.91656 9.86994 5.37323 9.17328C5.41255 9.10249 5.42476 9.01982 5.40759 8.94069C5.39041 8.86156 5.34502 8.79139 5.27989 8.74328Z" fill="#338C7C"/>
</svg>

<svg width="6" height="12" fill="none" xmlns="http://www.w3.org/2000/svg"><path d="M3.917 3.333a1.333 1.333 0 100-2.666 1.333 1.333 0 000 2.666zM5.28 8.743a.333.333 0 00-.467.097 5.533 5.533 0 01-1.17 1.257c-.11.083-.52.4-.693.333-.12-.037-.05-.273-.027-.373l.177-.524c.073-.213 1.35-4 1.49-4.433.207-.633.117-1.257-.827-1.107-.256.027-2.86.364-2.906.367a.334.334 0 00.043.667s1-.13 1.11-.14a.293.293 0 01.283.146.823.823 0 01-.023.57C2.183 5.937.813 9.797.77 10.02a.927.927 0 00.393 1c.303.202.664.299 1.027.277a2.842 2.842 0 001.03-.207c.83-.333 1.697-1.22 2.153-1.917a.333.333 0 00-.093-.43z" fill="#338C7C"/></svg>
